X:1
T:Inasmuch (Burnap), 888
T:Uzziah Christopher Burnap, 1895
T:Inasmuch (Burnap), 888
T:Public Domain
C:Uzziah Christopher Burnap, 1895
Z:Public Domain
%%score ( 1 2 ) 3
L:1/8
M:4/4
K:G
V:1 treble 
V:2 treble 
V:3 bass 
V:1
 [B,D]2 | [B,D]2 [B,G]2 [CA]2 [DB]2 | [EB]3 E E2 [DE]2 | [CE]2 [CA]2 [DB]2 [Ec]2 | %4
 [Fc]3 [DF] [DF]2 [DF]2 | [DG]2 [DG]2 [DA]2 [DB]2 | [CA]3 [CG] [B,G]2 |] %7
V:2
 x2 | x8 | x3 E E2 x2 | x8 | x8 | x8 | x6 |] %7
V:3
 [G,,G,]2 | [G,,G,]2 [G,,G,]2 [G,,G,]2 [G,,G,]2 | [C,^G,]3 [C,A,] [C,A,]2 [B,,G,]2 | %3
 [A,,A,]2 [A,,A,]2 [A,,A,]2 [A,,A,]2 | [D,A,]3 [D,A,] [D,A,]2 [C,A,]2 | %5
 [B,,G,]2 [B,,G,]2 [A,,F,]2 [G,,G,]2 | [D,G,]2 [D,F,]2 [G,,G,]2 |] %7

